X:251
M:4/4
L:1/4
K:Ab
C | F G A B | c3 A | B c d e | c3 G | A B c d | e G A d | c2 B2 | A3 A | c c c c | B3 A/G/ | F/G/ A/B/ c F | (F =E2) !sintro!C | F G A B | c B/c/ d c/B/ | A2 G2 | F3 !eintro!|]
